!!!COM: Josephine Lang
!!!CNT: Deutsch
!!!TXO: Deutsch
!!!OTL: "In weite Ferne"
!!!LYR: Heine
!!!OPS: Op. 15
!!!ONM: No. 3
!!!ENC: Alyona Dzerbina, edited by LVH
!!!YOR: Josephine Lang: Selected Songs
!!!YOR: Da Capo Press, 1982
!!!ODT: 1832/
!!NB: Vocal melody only encoded.
**kern	**text
*staff1	*staff1
*clefG2	*
*k[f#c#g#d#a#]	*
*met(C)	*
*M4/4	*
*MM[Andante]	*
1r	.
=2	=2
1r	.
=3	=3
2r	.
8r	.
{8f#	{In
8.f#	wei-
16f#	-te
=4!|:	=4!|:
4.f#	Fer-
8f#	-ne
4.cc#	will
8b	ich
=5	=5
2b	tra2u-
4a#}	-men!}
4r	.
=6	=6
{2d#	{Da
4.a#	wo
8g#	Du
=7	=7
2c#}	weilst.}
8r	.
{8g#	{Wo
8g#	aus
8g#	den
=8	=8
4g#	schnee-
4g#	-ig
4.ee	hel-
8dd#	-len
=9	=9
2dd#	Ra2u-
8cc#	-men
8cc#	die
8dd#	Ba2-
8ee	-che
=10	=10
[2f#	in
8f#]	|
8b	die
8.cc#	See-
16dd#	-en
=11	=11
(8dd#	scha2u-
8e)	|
2e}	-men,}
8r	.
{8d#	{die
=12	=12
4.b	Ba2-
8b	-che
8.a#	in
16g#	die
8f#	See-
8g#	-en
=13	=13
(4.dd#	scha2u-
8d#)	|
2d#}	-men!}
=14	=14
4r	.
{2a#	{Da
8g#	wo
8f#	Du
=15	=15
([2ff#	weilst,
16ff#]	|
16ee	|
16cc#	|
16b	|
16gn	|
16e	|
16c#	|
16g)}	|}
=16	=16
{2f#	{da
4.g#	wo
8f#	Du
=17	=17
2B}	weilst!}
2r	.
=18	=18
1r	.
=19	=19
1r	.
=20	=20
1r	.
=21	=21
1r	.
==	==
*-	*-
